src/icon.svg

<?xml version="1.0" encoding="UTF-8" standalone="no"?>
<svg width="100px" height="100px" viewBox="0 0 100 100" version="1.1" xmlns="http://www.w3.org/2000/svg" xmlns:xlink="http://www.w3.org/1999/xlink" xmlns:sketch="http://www.bohemiancoding.com/sketch/ns">
    <!-- Generator: Sketch 3.1.1 (8761) - http://www.bohemiancoding.com/sketch -->
    <title>CP Body Classes</title>
    <desc>Created with Sketch.</desc>
    <defs></defs>
    <g id="Page-1" stroke="none" stroke-width="1" fill="none" fill-rule="evenodd" sketch:type="MSPage">
        <circle id="circle" fill="#333F4D" sketch:type="MSShapeGroup" cx="50" cy="50" r="50"></circle>
        <path d="M13.887504,48.2270508 L21.7615275,51.8579102 C22.0766332,52.0083015 22.3022169,52.1569003 22.4382853,52.3037109 C22.5743537,52.4505216 22.6423869,52.6170238 22.6423869,52.8032227 C22.6423869,53.0180675 22.5797247,53.1899408 22.4543986,53.3188477 C22.3290724,53.4477546 22.1554088,53.512207 21.9334025,53.512207 C21.8331416,53.512207 21.7221401,53.4943036 21.6003947,53.4584961 C21.4786493,53.4226886 21.306776,53.3510748 21.0847697,53.2436523 L12.5447306,49.2583008 C12.5160846,49.2511393 12.4802777,49.2368165 12.4373087,49.215332 C11.7784513,48.9145493 11.4490275,48.5851255 11.4490275,48.2270508 C11.4490275,47.8689761 11.7712899,47.5467137 12.4158244,47.2602539 C12.4731163,47.2316079 12.5160846,47.2101238 12.5447306,47.1958008 L21.0847697,43.2749023 C21.27813,43.1818029 21.4428419,43.1155601 21.5789103,43.0761719 C21.7149787,43.0367837 21.8331416,43.0170898 21.9334025,43.0170898 C22.1554088,43.0170898 22.3290724,43.0779616 22.4543986,43.199707 C22.5797247,43.3214524 22.6423869,43.4861643 22.6423869,43.6938477 C22.6423869,43.887208 22.5743537,44.0572909 22.4382853,44.2041016 C22.3022169,44.3509122 22.0766332,44.4959303 21.7615275,44.6391602 L13.887504,48.2270508 Z M33.3214871,53.5336914 C34.3312577,53.5336914 35.1512365,53.2150097 35.781448,52.5776367 C36.4116595,51.9402637 36.7267605,51.1131236 36.7267605,50.0961914 C36.7267605,49.1007437 36.4062885,48.2807649 35.7653347,47.6362305 C35.124381,46.991696 34.3097733,46.6694336 33.3214871,46.6694336 C32.3260394,46.6694336 31.5114316,46.9899056 30.8776394,47.6308594 C30.2438472,48.2718131 29.9269558,49.0935822 29.9269558,50.0961914 C29.9269558,51.0988006 30.2438472,51.9223601 30.8776394,52.5668945 C31.5114316,53.211429 32.3260394,53.5336914 33.3214871,53.5336914 L33.3214871,53.5336914 Z M29.9699246,46.6479492 C30.3709682,46.1466446 30.8722653,45.7635104 31.4738308,45.4985352 C32.0753963,45.2335599 32.7557281,45.1010742 33.5148464,45.1010742 C34.9543068,45.1010742 36.153839,45.5862582 37.1134793,46.5566406 C38.0731195,47.5270231 38.5529324,48.7283457 38.5529324,50.1606445 C38.5529324,51.5714589 38.060587,52.7674105 37.0758816,53.7485352 C36.0911762,54.7296599 34.8898535,55.2202148 33.4718777,55.2202148 C32.7199208,55.2202148 32.0646539,55.0877292 31.5060574,54.8227539 C30.9474608,54.5577786 30.4891321,54.156741 30.1310574,53.6196289 L30.1310574,54.4790039 C30.1310574,54.6723642 30.0970408,54.8120113 30.0290066,54.8979492 C29.9609724,54.9838871 29.8481806,55.0268555 29.6906277,55.0268555 L27.7248074,55.0268555 C27.4455091,55.0268555 27.2378289,54.962403 27.1017605,54.8334961 C26.9656921,54.7045892 26.8976589,54.5112318 26.8976589,54.253418 C26.8976589,53.9669582 26.9800149,53.7718104 27.1447293,53.6679688 C27.3094436,53.5641271 27.6352867,53.512207 28.1222683,53.512207 L28.3478543,53.512207 L28.3478543,42.512207 L28.1437527,42.512207 C27.6567711,42.512207 27.3237666,42.4549159 27.1447293,42.340332 C26.9656919,42.2257481 26.8761746,42.0252293 26.8761746,41.7387695 C26.8761746,41.4809557 26.9477884,41.2875983 27.0910183,41.1586914 C27.2342482,41.0297845 27.4455091,40.965332 27.7248074,40.965332 L29.3576199,40.965332 C29.5724647,40.965332 29.7282249,41.001139 29.824905,41.0727539 C29.9215852,41.1443688 29.9699246,41.2553703 29.9699246,41.4057617 L29.9699246,46.6479492 Z M45.168556,53.7915039 C46.2714261,53.7915039 47.1755512,53.4423863 47.8809584,52.7441406 C48.5863656,52.0458949 48.9390638,51.1560926 48.9390638,50.074707 C48.9390638,48.9933214 48.5845752,48.0999384 47.8755873,47.3945312 C47.1665994,46.6891241 46.2642646,46.3364258 45.168556,46.3364258 C44.0728474,46.3364258 43.1723031,46.6891241 42.4668959,47.3945312 C41.7614887,48.0999384 41.4087904,48.9933214 41.4087904,50.074707 C41.4087904,51.1632541 41.7596984,52.0548468 42.4615248,52.7495117 C43.1633512,53.4441767 44.0656859,53.7915039 45.168556,53.7915039 L45.168556,53.7915039 Z M50.8082045,50.074707 C50.8082045,51.6072668 50.2854232,52.8605095 49.2398451,53.8344727 C48.194267,54.8084359 46.8371842,55.2954102 45.168556,55.2954102 C43.5070894,55.2954102 42.1535873,54.8084359 41.1080092,53.8344727 C40.062431,52.8605095 39.5396498,51.6072668 39.5396498,50.074707 C39.5396498,48.5421473 40.062431,47.290695 41.1080092,46.3203125 C42.1535873,45.34993 43.5070894,44.8647461 45.168556,44.8647461 C46.8300227,44.8647461 48.1853151,45.3517204 49.234474,46.3256836 C50.2836329,47.2996468 50.8082045,48.5493088 50.8082045,50.074707 L50.8082045,50.074707 Z M60.8291016,55.0268555 C60.6787102,55.0268555 60.5730797,54.9892582 60.512207,54.9140625 C60.4513343,54.8388668 60.4208984,54.6938487 60.4208984,54.4790039 L60.4208984,53.5981445 C59.9912088,54.1352566 59.4541048,54.5524074 58.8095703,54.8496094 C58.1650358,55.1468114 57.4668006,55.2954102 56.7148438,55.2954102 C55.3613214,55.2954102 54.2280319,54.8138069 53.3149414,53.8505859 C52.4018509,52.887365 51.9453125,51.689623 51.9453125,50.2573242 C51.9453125,48.7748949 52.4322868,47.5413461 53.40625,46.5566406 C54.3802132,45.5719352 55.5940683,45.0795898 57.0478516,45.0795898 C57.7854855,45.0795898 58.4479137,45.2102852 59.0351562,45.4716797 C59.6223988,45.7330742 60.1272765,46.1179988 60.5498047,46.6264648 L60.5498047,42.512207 L59.9804688,42.512207 C59.3574188,42.512207 58.9545908,42.4567063 58.7719727,42.3457031 C58.5893546,42.2347 58.4980469,42.0323908 58.4980469,41.7387695 C58.4980469,41.4809557 58.5714511,41.2875983 58.7182617,41.1586914 C58.8650723,41.0297845 59.0781236,40.965332 59.3574219,40.965332 L61.5595703,40.965332 C61.7744151,40.965332 61.9301753,41.001139 62.0268555,41.0727539 C62.1235356,41.1443688 62.171875,41.2553703 62.171875,41.4057617 L62.171875,53.512207 L62.6552734,53.512207 C63.0061867,53.512207 63.2604159,53.5712885 63.4179688,53.6894531 C63.5755216,53.8076178 63.6542969,53.9956042 63.6542969,54.253418 C63.6542969,54.4969088 63.5862637,54.6866855 63.4501953,54.8227539 C63.3141269,54.9588223 63.1315116,55.0268555 62.9023438,55.0268555 L60.8291016,55.0268555 Z M53.7929688,50.2036133 C53.7929688,51.1918995 54.1116505,52.0011362 54.7490234,52.6313477 C55.3863964,53.2615591 56.1956331,53.5766602 57.1767578,53.5766602 C58.165044,53.5766602 58.9778614,53.2490267 59.6152344,52.59375 C60.2526074,51.9384733 60.5712891,51.1059621 60.5712891,50.0961914 C60.5712891,49.1007437 60.2543977,48.2807649 59.6206055,47.6362305 C58.9868132,46.991696 58.1722055,46.6694336 57.1767578,46.6694336 C56.1669871,46.6694336 55.3505891,46.9952767 54.7275391,47.6469727 C54.1044891,48.2986686 53.7929688,49.1508736 53.7929688,50.2036133 L53.7929688,50.2036133 Z M69.2171862,57.7768555 L69.6791002,57.7768555 C70.2018893,57.7768555 70.5563779,57.8323562 70.7425768,57.9433594 C70.9287756,58.0543625 71.0218737,58.2566717 71.0218737,58.550293 C71.0218737,58.8009453 70.9484694,58.990722 70.8016588,59.1196289 C70.6548482,59.2485358 70.4417969,59.3129883 70.1624987,59.3129883 L65.2103502,59.3129883 C64.87376,59.3129883 64.6392246,59.2556972 64.5067369,59.1411133 C64.3742493,59.0265294 64.3080065,58.8295912 64.3080065,58.550293 C64.3080065,58.2924792 64.37783,58.0991217 64.5174791,57.9702148 C64.6571283,57.8413079 64.8665988,57.7768555 65.1458971,57.7768555 L67.4769518,57.7768555 L69.2171862,54.3500977 L65.2748033,46.6264648 C64.8021447,46.6264648 64.478092,46.5691738 64.3026354,46.4545898 C64.1271788,46.3400059 64.0394518,46.1394871 64.0394518,45.8530273 C64.0394518,45.602375 64.1110656,45.4143886 64.2542955,45.2890625 C64.3975254,45.1637364 64.612367,45.1010742 64.8988268,45.1010742 L67.8958971,45.1010742 C68.2969408,45.1010742 68.5654928,45.156575 68.7015612,45.2675781 C68.8376295,45.3785813 68.9056627,45.5737291 68.9056627,45.8530273 C68.9056627,46.1394871 68.8161454,46.3400059 68.637108,46.4545898 C68.4580707,46.5691738 68.1286469,46.6264648 67.6488268,46.6264648 L67.2513658,46.6264648 L70.1624987,52.5454102 L73.1273424,46.6264648 L72.7083971,46.6264648 C72.214254,46.6264648 71.8740881,46.5691738 71.6878893,46.4545898 C71.5016904,46.3400059 71.4085924,46.1394871 71.4085924,45.8530273 C71.4085924,45.5737291 71.4766256,45.3785813 71.612694,45.2675781 C71.7487624,45.156575 72.020895,45.1010742 72.4291002,45.1010742 L75.0824205,45.1010742 C75.3760418,45.1010742 75.5926737,45.1637364 75.7323229,45.2890625 C75.871972,45.4143886 75.9417955,45.602375 75.9417955,45.8530273 C75.9417955,46.1251641 75.8630203,46.3185216 75.7054674,46.4331055 C75.5479145,46.5476894 75.2686204,46.6121419 74.8675768,46.6264648 L69.2171862,57.7768555 Z M87.3181614,48.2270508 L79.4656223,44.6391602 C79.1361936,44.4887688 78.9034485,44.34017 78.7673801,44.1933594 C78.6313117,44.0465487 78.5632786,43.8800465 78.5632786,43.6938477 C78.5632786,43.4861643 78.6259407,43.3214524 78.7512668,43.199707 C78.876593,43.0779616 79.0466759,43.0170898 79.2615207,43.0170898 C79.3689432,43.0170898 79.4888964,43.0367837 79.621384,43.0761719 C79.7538717,43.1155601 79.9203739,43.1818029 80.1208957,43.2749023 L88.6609348,47.1958008 L88.7898411,47.2602539 C89.4343755,47.5467137 89.7566379,47.8689761 89.7566379,48.2270508 C89.7566379,48.577964 89.4415369,48.9002264 88.8113254,49.1938477 C88.7397105,49.2224936 88.6895808,49.2439778 88.6609348,49.2583008 L80.1208957,53.2436523 L80.077927,53.2651367 C79.7055293,53.4298511 79.4333966,53.512207 79.2615207,53.512207 C79.0466759,53.512207 78.876593,53.4477546 78.7512668,53.3188477 C78.6259407,53.1899408 78.5632786,53.0180675 78.5632786,52.8032227 C78.5632786,52.6170238 78.6313117,52.4505216 78.7673801,52.3037109 C78.9034485,52.1569003 79.1361936,52.0083015 79.4656223,51.8579102 L87.3181614,48.2270508 Z" id="&lt;body>-(outline)" fill="#FFFFFF" sketch:type="MSShapeGroup"></path>
    </g>
</svg>

<svg xmlns="http://www.w3.org/2000/svg" width="100" height="100" viewBox="0 0 100 100">
    <circle fill="#333f4d" cx="50" cy="50" r="50"/>
    <path fill="#fff" d="M13.888 48.227l7.874 3.631c.315.15.541.299.677.446s.204.313.204.5c0 .215-.063.387-.188.516s-.299.193-.521.193a1.19 1.19 0 0 1-.333-.054c-.122-.036-.294-.107-.516-.215l-8.54-3.985c-.029-.007-.064-.021-.107-.043-.659-.301-.988-.63-.988-.988s.322-.68.967-.967l.129-.064 8.54-3.921c.193-.093.358-.159.494-.199s.254-.059.354-.059c.222 0 .396.061.521.183s.188.286.188.494c0 .193-.068.363-.204.51s-.362.292-.677.435l-7.874 3.588zm19.434 5.307c1.01 0 1.83-.319 2.46-.956s.945-1.465.945-2.481c0-.995-.32-1.815-.961-2.46s-1.456-.967-2.444-.967c-.995 0-1.81.32-2.444.961s-.951 1.463-.951 2.465.317 1.826.951 2.471 1.448.967 2.444.967h0zm-3.352-6.886c.401-.501.902-.884 1.504-1.149s1.282-.397 2.041-.397c1.439 0 2.639.485 3.599 1.456s1.439 2.172 1.439 3.604a4.87 4.87 0 0 1-1.477 3.588 4.91 4.91 0 0 1-3.604 1.472c-.752 0-1.407-.132-1.966-.397s-1.017-.666-1.375-1.203v.859c0 .193-.034.333-.102.419s-.181.129-.338.129h-1.966c-.279 0-.487-.064-.623-.193s-.204-.322-.204-.58c0-.286.082-.482.247-.585s.491-.156.978-.156h.226v-11h-.204c-.487 0-.82-.057-.999-.172s-.269-.315-.269-.602c0-.258.072-.451.215-.58s.354-.193.634-.193h1.633c.215 0 .371.036.467.107s.145.183.145.333v5.242zm15.199 7.144c1.103 0 2.007-.349 2.712-1.047s1.058-1.588 1.058-2.669-.354-1.975-1.063-2.68-1.611-1.058-2.707-1.058-1.996.353-2.702 1.058-1.058 1.599-1.058 2.68c0 1.089.351 1.98 1.053 2.675s1.604 1.042 2.707 1.042h0zm5.64-3.717c0 1.533-.523 2.786-1.568 3.76s-2.403 1.461-4.071 1.461c-1.661 0-3.015-.487-4.061-1.461s-1.568-2.227-1.568-3.76.523-2.784 1.568-3.754 2.399-1.456 4.061-1.456 3.017.487 4.066 1.461 1.574 2.224 1.574 3.749h0zm10.021 4.952c-.15 0-.256-.038-.317-.113s-.091-.22-.091-.435v-.881a4.38 4.38 0 0 1-1.611 1.251 4.94 4.94 0 0 1-2.095.446c-1.354 0-2.487-.482-3.4-1.445s-1.37-2.161-1.37-3.593c0-1.482.487-2.716 1.461-3.701s2.188-1.477 3.642-1.477c.738 0 1.4.131 1.987.392s1.092.646 1.515 1.155v-4.114h-.569c-.623 0-1.026-.056-1.208-.167s-.274-.313-.274-.607c0-.258.073-.451.22-.58s.36-.193.639-.193h2.202c.215 0 .371.036.467.107s.145.183.145.333v12.106h.483c.351 0 .605.059.763.177s.236.306.236.564c0 .243-.068.433-.204.569a.74.74 0 0 1-.548.204h-2.073zm-7.036-4.823c0 .988.319 1.798.956 2.428s1.447.945 2.428.945c.988 0 1.801-.328 2.438-.983s.956-1.488.956-2.498c0-.995-.317-1.815-.951-2.46s-1.448-.967-2.444-.967c-1.01 0-1.826.326-2.449.978s-.935 1.504-.935 2.557h0zm15.424 7.573h.462c.523 0 .877.056 1.063.167s.279.313.279.607c0 .251-.073.44-.22.569s-.36.193-.639.193H65.21c-.337 0-.571-.057-.704-.172s-.199-.312-.199-.591c0-.258.07-.451.209-.58s.349-.193.628-.193h2.331l1.74-3.427-3.942-7.724c-.473 0-.797-.057-.972-.172s-.263-.315-.263-.602c0-.251.072-.439.215-.564s.358-.188.645-.188h2.997c.401 0 .67.056.806.167s.204.306.204.585c0 .286-.09.487-.269.602s-.508.172-.988.172h-.397l2.911 5.919 2.965-5.919h-.419c-.494 0-.834-.057-1.021-.172s-.279-.315-.279-.602c0-.279.068-.474.204-.585s.408-.167.816-.167h2.653c.294 0 .51.063.65.188s.209.313.209.564c0 .272-.079.465-.236.58s-.437.179-.838.193l-5.65 11.15zm18.101-9.55l-7.853-3.588c-.329-.15-.562-.299-.698-.446s-.204-.313-.204-.5c0-.208.063-.372.188-.494s.295-.183.51-.183c.107 0 .227.02.36.059s.299.106.5.199l8.54 3.921.129.064c.645.286.967.609.967.967 0 .351-.315.673-.945.967l-.15.064-8.54 3.985-.043.021c-.372.165-.645.247-.816.247-.215 0-.385-.064-.51-.193s-.188-.301-.188-.516c0-.186.068-.353.204-.5s.369-.295.698-.446l7.853-3.631z"/>
</svg>
